apps/32/preferences-gtk-config.svg

<svg width="32" height="32" version="1.1" viewBox="0 0 32 32" xmlns="http://www.w3.org/2000/svg" xmlns:xlink="http://www.w3.org/1999/xlink">
<defs>
<linearGradient id="linearGradient3403" x1="6.9492" x2="11.215" y1="4.5549" y2="59.052" gradientUnits="userSpaceOnUse">
<stop style="stop-color:#32373c" offset="0"/>
<stop style="stop-color:#1a1a1a" offset=".36805"/>
<stop style="stop-color:#31363b" offset="1"/>
</linearGradient>
<linearGradient id="linearGradient20558" x1="25.802" x2="25.111" y1="20.374" y2="58.913" gradientUnits="userSpaceOnUse">
<stop style="stop-color:#3d3d3d" offset="0"/>
<stop offset=".61772"/>
<stop style="stop-color:#3d3d3d" offset="1"/>
</linearGradient>
<linearGradient id="linearGradient4557" x1="43.5" x2="44.142" y1="64.012" y2=".30621" gradientTransform="translate(.36068 -.13017)" gradientUnits="userSpaceOnUse">
<stop style="stop-color:#141618" offset="0"/>
<stop style="stop-color:#686868" offset=".51821"/>
<stop style="stop-color:#31363b" offset="1"/>
</linearGradient>
<linearGradient id="d" x2="0" y1="543.8" y2="502.66" gradientTransform="matrix(.5 0 0 .46417 -209.98 -215.48)" gradientUnits="userSpaceOnUse">
<stop stop-color="#c6cdd1" offset="0"/>
<stop stop-color="#e0e5e7" offset="1"/>
</linearGradient>
<linearGradient id="e" x1="431.16" x2="465.16" y1="511.39" y2="543.93" gradientTransform="matrix(1 0 0 .86047 -424.16 -425.03)" gradientUnits="userSpaceOnUse" xlink:href="#b"/>
<linearGradient id="b">
<stop offset="0"/>
<stop stop-opacity="0" offset="1"/>
</linearGradient>
<linearGradient id="g" x1="9" x2="23" y1="11" y2="25" gradientTransform="matrix(1.2913 0 0 1.2913 3.338 2.793)" gradientUnits="userSpaceOnUse" xlink:href="#b"/>
<radialGradient id="h" cx="25.641" cy="3.684" r="17.995" gradientTransform="matrix(.7583 0 0 .33171 6.858 18.171)" gradientUnits="userSpaceOnUse">
<stop stop-color="#555753" offset="0"/>
<stop stop-color="#2e3436" offset="1"/>
</radialGradient>
</defs>
<g transform="matrix(.58781 0 0 .74234 2.8278 -2.0882)">
<rect y="5" width="48" height="38" rx="5" ry="5" style="fill:url(#d)"/>
<path d="m1.1 41c0.132 0.172 0.208 0.386 0.36 0.54a4.989 4.989 0 0 0 3.54 1.46h38a5.005 5.005 0 0 0 3.54-1.46c0.152-0.154 0.228-0.368 0.36-0.54z" style="fill:#99a1a7"/>
<path d="m33 17.389-12.908 9.981 13.628 13.63h8.28c0.554 0 1.082-0.11 1.56-0.313 0.112-0.046 0.19-0.142 0.295-0.199l2.112-3.324c2e-3 -0.058 0.033-0.106 0.033-0.164v-6.611zm-12 12.011-2 4.077-4 1.523 6 6h11.6z" style="fill-rule:evenodd;fill:url(#e);opacity:.2"/>
<path d="m6 43h37a5.005 5.005 0 0 0 3.54-1.46 4.989 4.989 0 0 0 1.46-3.54v-20l-3.24-3.24-41.52 25.48z" style="fill-rule:evenodd;fill:url(#e);opacity:.2"/>
<path d="m5 5a5.005 5.005 0 0 0-3.54 1.46 4.989 4.989 0 0 0-1.46 3.54v1h48v-1a5.005 5.005 0 0 0-1.46-3.54 4.989 4.989 0 0 0-3.54-1.46z" style="fill:#566069"/>
<path d="m0 11h48v1h-48z" style="fill:#3daee9"/>
<rect x="40" y="6" width="4" height="3.3325" rx="2" style="fill:#eff0f1;stroke-width:.91276"/>
<rect x="2" y="14" width="44" height="27" ry="4" style="fill:#fff"/>
<path d="m30.478 17.508c-0.517 1.514-1.324 2.91-2.33 4.218l-3.603-3.604-1.66 2.624 0.158 0.41 0.416 0.408 0.831 0.818 1.663 1.636c-0.051 0.048 0.02 0.095-0.033 0.142l-0.297-0.156-4.774-4.775-0.8 1.47 0.481 0.48-0.584 0.782 3.74 3.74c-0.709-0.419-1.999-0.725-1.999-0.725l-0.69-0.65-1.466-1.466-0.734-0.733-0.365-0.366-0.184-0.183-0.27-0.184-0.568 1.034 0.32 0.553-0.593 0.478 0.27 0.299 0.141 0.3 1.626 1.791 2.167 2.392c-0.422 0.24-1.98 0.485-2.421 0.718l1.343 3.308 7.61 7.972h15.494v-9.039z" style="fill-rule:evenodd;fill:url(#g);opacity:.2;stroke-width:1.291"/>
<path d="m29.715 16.996c-3.673 0-4.36 5.366-2.295 5.366 2.066 0 5.968-5.366 2.295-5.366zm-5.656 0.827c-0.058 0-0.121 4e-3 -0.186 0.01-2.081 0.253-1.35 3.64-0.241 3.704 1.071 0.06 2.246-3.709 0.426-3.714zm-3.609 1.25a0.994 0.994 0 0 0-0.426 0.077c-1.672 0.659-0.253 3.386 0.684 3.203 0.85-0.166 0.971-3.204-0.258-3.28zm-2.73 2.229a0.768 0.768 0 0 0-0.47 0.164c-1.339 0.96 0.45 3.282 1.239 2.922 0.688-0.315 0.249-3.052-0.769-3.086zm7.908 2.215c-2.902-0.047-6.728 1.368-7.38 4.211-0.707 3.077 2.91 7.346 6.683 7.346 1.855 0 3.996-1.63 4.398-3.697 0.306-1.575-3.6-0.942-3.46 0.098 0.167 1.25-0.944 1.868-2.03 1.062-3.461-2.563 5.731-3.843 5.126-7.346-0.189-1.09-1.596-1.645-3.337-1.674z" style="fill:url(#h);stroke-width:1.291"/>
</g>
<path transform="matrix(.5 0 0 .5 .066304 .016549)" d="m4.7043 3.9815-0.012938 56.82h53.904l1.0222-2.8664s-23.875 0.76639-32.844-4.1404c-10.516-5.7529-15.372-49.697-15.372-49.697z" style="fill:url(#linearGradient3403);mix-blend-mode:normal;stroke-linejoin:round;stroke-width:1.1624;stroke:url(#linearGradient20558)"/>
<rect transform="matrix(.46839 0 0 .46744 .90638 1.0269)" x="1.0324" y=".59551" width="62.567" height="62.867" rx="5.803" ry="6.2447" style="fill:none;stroke-linejoin:round;stroke-miterlimit:7.8;stroke-opacity:.99515;stroke-width:3.7137;stroke:url(#linearGradient4557)"/>
</svg>

<?xml version="1.0" encoding="UTF-8" standalone="no"?>
<!-- Created with Inkscape (http://www.inkscape.org/) -->

<svg
   width="32"
   height="32"
   version="1.1"
   viewBox="0 0 32 32"
   id="svg22"
   xmlns:xlink="http://www.w3.org/1999/xlink"
   xmlns="http://www.w3.org/2000/svg"
   xmlns:svg="http://www.w3.org/2000/svg">
  <defs
     id="defs12">
    <linearGradient
       xlink:href="#linearGradient3487"
       id="linearGradient3403"
       gradientUnits="userSpaceOnUse"
       x1="6.9491749"
       y1="4.5549412"
       x2="11.215498"
       y2="59.052471" />
    <linearGradient
       id="linearGradient3487">
      <stop
         style="stop-color:#32373c;stop-opacity:1"
         offset="0"
         id="stop3481" />
      <stop
         id="stop3483"
         offset="0.36804965"
         style="stop-color:#1a1a1a;stop-opacity:1" />
      <stop
         style="stop-color:#31363b;stop-opacity:1"
         offset="1"
         id="stop3485" />
    </linearGradient>
    <linearGradient
       xlink:href="#linearGradient20604"
       id="linearGradient20558"
       gradientUnits="userSpaceOnUse"
       x1="25.802212"
       y1="20.373846"
       x2="25.111048"
       y2="58.912758" />
    <linearGradient
       id="linearGradient20604">
      <stop
         id="stop20598"
         offset="0"
         style="stop-color:#3d3d3d;stop-opacity:1" />
      <stop
         style="stop-color:#000000;stop-opacity:1"
         offset="0.61772454"
         id="stop20600" />
      <stop
         id="stop20602"
         offset="1"
         style="stop-color:#3d3d3d;stop-opacity:1" />
    </linearGradient>
    <filter
       style="color-interpolation-filters:sRGB"
       id="filter20720"
       x="-0.017024755"
       y="-0.016457183"
       width="1.0340491"
       height="1.0329144">
      <feGaussianBlur
         stdDeviation="0.14745661"
         id="feGaussianBlur20722" />
    </filter>
    <linearGradient
       gradientTransform="translate(0.36067797,-0.13016949)"
       xlink:href="#linearGradient4555"
       id="linearGradient4557"
       x1="43.499737"
       y1="64.011795"
       x2="44.141731"
       y2="0.30621234"
       gradientUnits="userSpaceOnUse" />
    <linearGradient
       id="linearGradient4555">
      <stop
         style="stop-color:#141618;stop-opacity:1"
         offset="0"
         id="stop4551" />
      <stop
         id="stop4559"
         offset="0.51820582"
         style="stop-color:#686868;stop-opacity:1" />
      <stop
         style="stop-color:#31363b;stop-opacity:1"
         offset="1"
         id="stop4553" />
    </linearGradient>
    <filter
       style="color-interpolation-filters:sRGB"
       id="filter4601"
       x="-0.030244955"
       width="1.0604899"
       y="-0.030100647"
       height="1.0602013">
      <feGaussianBlur
         stdDeviation="0.014790289"
         id="feGaussianBlur4603" />
    </filter>
    <linearGradient
       y2="502.655"
       x2="0"
       y1="543.79797"
       gradientTransform="matrix(0.5,0,0,0.46417,-209.978,-215.479)"
       gradientUnits="userSpaceOnUse"
       id="d"
       xlink:href="#a" />
    <linearGradient
       id="a">
      <stop
         stop-color="#c6cdd1"
         id="stop8" />
      <stop
         offset="1"
         stop-color="#e0e5e7"
         id="stop10" />
    </linearGradient>
    <linearGradient
       xlink:href="#b"
       id="e"
       gradientUnits="userSpaceOnUse"
       gradientTransform="matrix(1,0,0,0.86047,-424.16,-425.032)"
       x1="431.16101"
       y1="511.38901"
       x2="465.16101"
       y2="543.92902" />
    <linearGradient
       id="b">
      <stop
         id="stop2-7" />
      <stop
         offset="1"
         stop-opacity="0"
         id="stop4-7" />
    </linearGradient>
    <linearGradient
       xlink:href="#b"
       id="g"
       y1="11"
       x1="9"
       y2="25"
       x2="23"
       gradientUnits="userSpaceOnUse"
       gradientTransform="matrix(1.29127,0,0,1.29127,3.338,2.793)" />
    <radialGradient
       cx="25.641001"
       cy="3.684"
       r="17.995001"
       xlink:href="#c"
       id="h"
       gradientUnits="userSpaceOnUse"
       gradientTransform="matrix(0.7583,0,0,0.33171,6.858,18.171)" />
    <linearGradient
       id="c">
      <stop
         stop-color="#555753"
         id="stop15" />
      <stop
         offset="1"
         stop-color="#2e3436"
         id="stop17" />
    </linearGradient>
    <linearGradient
       xlink:href="#b"
       id="linearGradient202209"
       gradientUnits="userSpaceOnUse"
       gradientTransform="matrix(1,0,0,0.86047,-424.16,-425.032)"
       x1="431.16101"
       y1="511.38901"
       x2="465.16101"
       y2="543.92902" />
  </defs>
  <g
     id="g855"
     transform="matrix(0.58780514,0,0,0.74233711,2.8278349,-2.0881514)">
    <rect
       y="5"
       height="38"
       width="48"
       rx="5"
       ry="5"
       id="rect24"
       style="fill:url(#d)"
       x="0" />
    <path
       d="m 1.1,41 c 0.132,0.172 0.208,0.386 0.36,0.54 A 4.989,4.989 0 0 0 5,43 h 38 a 5.005,5.005 0 0 0 3.54,-1.46 C 46.692,41.386 46.768,41.172 46.9,41 Z"
       id="path26"
       style="fill:#99a1a7" />
    <path
       d="M 33,17.389 20.092,27.37 33.72,41 H 42 c 0.554,0 1.082,-0.11 1.56,-0.313 0.112,-0.046 0.19,-0.142 0.295,-0.199 l 2.112,-3.324 C 45.969,37.106 46,37.058 46,37 V 30.389 Z M 21,29.4 19,33.477 15,35 l 6,6 h 11.6 z"
       id="path28"
       style="opacity:0.2;fill:url(#linearGradient202209);fill-rule:evenodd" />
    <path
       d="M 6,43 H 43 A 5.005,5.005 0 0 0 46.54,41.54 4.989,4.989 0 0 0 48,38 V 18 L 44.76,14.76 3.24,40.24 Z"
       id="path30"
       style="opacity:0.2;fill:url(#e);fill-rule:evenodd" />
    <path
       d="M 5,5 A 5.005,5.005 0 0 0 1.46,6.46 4.989,4.989 0 0 0 0,10 v 1 H 48 V 10 A 5.005,5.005 0 0 0 46.54,6.46 4.989,4.989 0 0 0 43,5 Z"
       id="path32"
       style="fill:#566069" />
    <path
       d="m 0,11 h 48 v 1 H 0 Z"
       id="path34"
       style="fill:#3daee9" />
    <rect
       width="4"
       height="3.3325047"
       x="40"
       y="6"
       rx="2"
       id="rect36"
       style="fill:#eff0f1;stroke-width:0.912757" />
    <rect
       width="44"
       height="27"
       x="2"
       y="14"
       ry="4"
       id="rect38"
       style="fill:#ffffff" />
    <path
       d="m 30.478,17.508 c -0.517,1.514 -1.324,2.91 -2.33,4.218 l -3.603,-3.604 -1.66,2.624 0.158,0.41 0.416,0.408 0.831,0.818 1.663,1.636 c -0.051,0.048 0.02,0.095 -0.033,0.142 l -0.297,-0.156 -4.774,-4.775 -0.8,1.47 0.481,0.48 -0.584,0.782 0.234,0.234 0.234,0.234 0.467,0.467 0.935,0.935 1.87,1.87 c -0.709,-0.419 -1.999,-0.725 -1.999,-0.725 l -0.69,-0.65 -1.466,-1.466 -0.734,-0.733 -0.365,-0.366 -0.184,-0.183 -0.27,-0.184 -0.568,1.034 0.32,0.553 -0.593,0.478 0.27,0.299 0.141,0.3 0.542,0.597 1.084,1.194 2.167,2.392 c -0.422,0.24 -1.98,0.485 -2.421,0.718 l 1.343,3.308 7.61,7.972 H 43.367 V 31.2 Z"
       id="path40"
       style="opacity:0.2;fill:url(#g);fill-rule:evenodd;stroke-width:1.291" />
    <path
       d="m 29.715,16.996 c -3.673,0 -4.36,5.366 -2.295,5.366 2.066,0 5.968,-5.366 2.295,-5.366 z m -5.656,0.827 c -0.058,0 -0.121,0.004 -0.186,0.01 -2.081,0.253 -1.35,3.64 -0.241,3.704 1.071,0.06 2.246,-3.709 0.426,-3.714 z m -3.609,1.25 a 0.994,0.994 0 0 0 -0.426,0.077 c -1.672,0.659 -0.253,3.386 0.684,3.203 0.85,-0.166 0.971,-3.204 -0.258,-3.28 z m -2.73,2.229 a 0.768,0.768 0 0 0 -0.47,0.164 c -1.339,0.96 0.45,3.282 1.239,2.922 0.688,-0.315 0.249,-3.052 -0.769,-3.086 z m 7.908,2.215 c -2.902,-0.047 -6.728,1.368 -7.38,4.211 -0.707,3.077 2.91,7.346 6.683,7.346 1.855,0 3.996,-1.63 4.398,-3.697 0.306,-1.575 -3.6,-0.942 -3.46,0.098 0.167,1.25 -0.944,1.868 -2.03,1.062 -3.461,-2.563 5.731,-3.843 5.126,-7.346 -0.189,-1.09 -1.596,-1.645 -3.337,-1.674 z"
       id="path42"
       style="fill:url(#h);stroke-width:1.291" />
  </g>
  <path
     style="display:inline;mix-blend-mode:normal;fill:url(#linearGradient3403);fill-opacity:1;stroke:url(#linearGradient20558);stroke-width:1.16242;stroke-linecap:butt;stroke-linejoin:round;stroke-miterlimit:4;stroke-dasharray:none;stroke-opacity:1;filter:url(#filter20720)"
     d="M 4.7043071,3.9814882 4.6913695,60.80196 H 58.59546 l 1.022155,-2.866369 c 0,0 -23.87537,0.766388 -32.844441,-4.140386 C 16.257548,48.042344 11.401114,4.0978197 11.401114,4.0978197 Z"
     id="path1686"
     transform="matrix(0.5,0,0,0.5,0.06630362,0.01654936)" />
  <rect
     style="display:inline;fill:none;fill-opacity:1;stroke:url(#linearGradient4557);stroke-width:3.71366;stroke-linejoin:round;stroke-miterlimit:7.8;stroke-dasharray:none;stroke-opacity:0.995146;filter:url(#filter4601)"
     id="rect4539"
     width="62.566689"
     height="62.866646"
     x="1.0323594"
     y="0.59551275"
     ry="6.2447233"
     rx="5.8029528"
     transform="matrix(0.46839137,0,0,0.46743669,0.90638486,1.0268972)" />
</svg>
